public/library/codex-text-dark.svg

<svg width="393" height="86" viewBox="0 0 393 86" fill="none" xmlns="http://www.w3.org/2000/svg">
<path d="M375.156 57.3909C370.731 50.9614 365.695 47.2905 359.351 45.8681C359.035 44.144 358.877 42.5205 358.877 40.9257C358.877 39.1441 358.971 37.3985 359.157 35.7319C364.236 34.4819 368.338 31.6299 371.686 27.0108L389.947 1.37915H376.269L363.813 19.5971C360.645 24.1445 358.698 29.0366 357.872 34.5394C356.557 34.7764 355.091 34.8914 353.195 34.8914C351.298 34.8914 349.833 34.7836 348.518 34.5394C347.692 29.0366 345.745 24.1445 342.577 19.6043L330.114 1.37915H316.436L334.697 27.018C338.037 31.6299 342.139 34.4819 347.218 35.7319C347.405 37.3913 347.498 39.137 347.498 40.9257C347.498 42.5205 347.34 44.1368 347.024 45.8609C340.774 47.1468 335.595 50.9255 331.213 57.3909L313.347 83.705H326.644L341.299 61.306C344.912 55.7745 347.225 51.6295 348.231 47.0894C349.718 46.8451 351.342 46.723 353.173 46.723C355.005 46.723 356.629 46.8451 358.116 47.0894C359.122 51.6295 361.435 55.7745 365.048 61.306L379.703 83.705H393L375.134 57.3909H375.156Z" fill="#F9F9F9"/>
<path d="M262.116 73.2028V45.9836H304.062V35.5312H262.116V11.7817H308.106V1.32935H250.047V25.0429C250.047 33.0672 254.271 35.5312 262.116 35.5312V45.9836C254.781 45.9836 250.047 49.8628 250.047 57.3985V83.6552H308.106V73.2028H262.116Z" fill="#F9F9F9"/>
<path d="M221.951 12.9167C217.404 5.12237 210.091 1.32935 199.61 1.32935H171.6V83.6552H199.61C209.444 83.6552 216.793 79.7975 221.477 72.1899C233.273 67.5133 239.501 57.1687 239.501 42.2624C239.501 27.3561 233.431 17.7083 221.951 12.9167ZM205.278 73.5476H182.074V11.4297H205.278C211.326 11.4297 216.599 12.3133 220.952 14.059C224.537 20.4453 226.283 29.6764 226.283 42.2624C226.283 54.8483 224.393 64.3093 220.5 71.0333C216.053 72.7071 210.931 73.5548 205.278 73.5548V73.5476Z" fill="#F9F9F9"/>
<path d="M143.765 12.8805C139.218 4.3318 131.582 0 121.058 0C110.533 0 102.768 4.45393 98.2276 13.2325C86.9922 18.5916 81.0513 28.6416 81.0513 42.3195C81.0513 55.9974 87.2724 66.6149 99.0538 72.1105C103.932 80.731 111.338 85.0987 121.058 85.0987C131.625 85.0987 139.268 80.6879 143.773 71.9884C155.087 66.7586 161.064 56.5002 161.064 42.3195C161.064 28.1388 155.245 18.1821 143.765 12.8805ZM121.058 74.8763C112.954 74.8763 105.893 73.5688 100.081 70.997C96.2305 63.8348 94.2766 54.187 94.2766 42.3195C94.2766 30.4519 95.9647 20.8975 99.2836 14.3244C105.131 11.5658 112.653 10.1075 121.058 10.1075C129.463 10.1075 136.898 11.415 142.724 13.9868C146.165 20.6892 147.839 29.9634 147.839 42.3195C147.839 54.6755 146.115 64.2659 142.717 70.8893C136.984 73.5329 129.692 74.8763 121.058 74.8763Z" fill="#F9F9F9"/>
<path d="M62.3047 52.9227L62.2831 53.6195C62.0605 60.7171 60.9542 66.6365 58.9858 71.2341C53.3466 73.6478 46.5723 74.8763 38.8497 74.8763C31.1272 74.8763 23.9578 73.5329 18.2324 70.8893C14.9063 64.1006 13.2181 54.4888 13.2181 42.3123C13.2181 30.1358 15.014 20.4234 18.5628 13.6348C24.044 11.2857 30.8614 10.1004 38.8426 10.1004C46.3137 10.1004 52.815 11.1707 58.1812 13.2899C59.8694 17.083 61.0116 21.9679 61.5863 27.8227L61.651 28.4692H75.099L74.7613 27.5138C72.3835 20.7395 67.0244 15.4451 59.2516 12.1765C55.4227 3.98698 48.749 0 38.8497 0C28.9505 0 22.0038 4.21686 17.5355 12.5285C5.89786 17.7295 0 27.7508 0 42.3195C0 56.8881 5.94096 66.5718 17.1764 71.9812C21.6662 80.6879 28.9577 85.0987 38.8497 85.0987C48.7418 85.0987 56.0836 80.8029 60.0706 72.326C68.2816 68.4899 73.6479 62.0892 75.6018 53.8063L75.8102 52.9227H62.3047Z" fill="#F9F9F9"/>
</svg>

<svg xmlns="http://www.w3.org/2000/svg" width="393" height="86" fill="none" viewBox="0 0 393 86"><path fill="#f9f9f9" d="M375.156 57.39c-4.425-6.429-9.461-10.1-15.805-11.522-.316-1.724-.474-3.348-.474-4.942 0-1.782.094-3.528.28-5.194 5.079-1.25 9.181-4.102 12.529-8.721l18.261-25.632h-13.678l-12.456 18.218c-3.168 4.547-5.115 9.44-5.941 14.942-1.315.237-2.781.352-4.677.352-1.897 0-3.362-.107-4.677-.352-.826-5.502-2.773-10.394-5.941-14.935L330.114 1.38h-13.678l18.261 25.639c3.34 4.612 7.442 7.464 12.521 8.714.187 1.66.28 3.405.28 5.194 0 1.594-.158 3.21-.474 4.935-6.25 1.286-11.429 5.065-15.811 11.53l-17.866 26.314h13.297l14.655-22.399c3.613-5.531 5.926-9.676 6.932-14.217 1.487-.244 3.111-.366 4.942-.366 1.832 0 3.456.122 4.943.366 1.006 4.54 3.319 8.686 6.932 14.217l14.655 22.399H393l-17.866-26.314zM262.116 73.203v-27.22h41.946V35.532h-41.946v-23.75h45.99V1.33h-58.059v23.714c0 8.024 4.224 10.488 12.069 10.488v10.453c-7.335 0-12.069 3.879-12.069 11.414v26.257h58.059V73.203zM221.951 12.917c-4.547-7.795-11.86-11.588-22.341-11.588H171.6v82.326h28.01c9.834 0 17.183-3.858 21.867-11.465 11.796-4.677 18.024-15.021 18.024-29.928s-6.07-24.554-17.55-29.345m-16.673 60.63h-23.204V11.43h23.204c6.048 0 11.321.883 15.674 2.629 3.585 6.386 5.331 15.617 5.331 28.203s-1.89 22.047-5.783 28.771c-4.447 1.674-9.569 2.522-15.222 2.522zM143.765 12.88C139.218 4.333 131.582 0 121.058 0s-18.29 4.454-22.83 13.233C86.992 18.592 81.05 28.642 81.05 42.319c0 13.678 6.221 24.296 18.003 29.792 4.878 8.62 12.284 12.988 22.004 12.988 10.567 0 18.21-4.411 22.715-13.11 11.314-5.23 17.291-15.489 17.291-29.67 0-14.18-5.819-24.137-17.299-29.439m-22.707 61.996c-8.104 0-15.165-1.307-20.977-3.879-3.85-7.162-5.804-16.81-5.804-28.678 0-11.867 1.688-21.421 5.007-27.995 5.847-2.758 13.369-4.216 21.774-4.216s15.84 1.307 21.666 3.879c3.441 6.702 5.115 15.976 5.115 28.332s-1.724 21.947-5.122 28.57c-5.733 2.644-13.025 3.987-21.659 3.987M62.305 52.923l-.022.697c-.223 7.097-1.329 13.017-3.297 17.614-5.64 2.414-12.414 3.642-20.136 3.642-7.723 0-14.892-1.343-20.618-3.987-3.326-6.788-5.014-16.4-5.014-28.577 0-12.176 1.796-21.889 5.345-28.677 5.481-2.35 12.298-3.535 20.28-3.535 7.47 0 13.972 1.07 19.338 3.19 1.688 3.793 2.83 8.678 3.405 14.533l.065.646h13.448l-.338-.955c-2.377-6.774-7.737-12.069-15.51-15.337C55.424 3.987 48.75 0 38.85 0c-9.9 0-16.846 4.217-21.315 12.529C5.898 17.729 0 27.75 0 42.319c0 14.57 5.941 24.253 17.176 29.662C21.666 80.688 28.958 85.1 38.85 85.1s17.234-4.296 21.22-12.773c8.212-3.836 13.578-10.237 15.532-18.52l.208-.883z"/></svg>
